X:239
T: LEBT WOHL WIR MUESSEN ABSCHIED NEHMEN
N: E1378
O: Europa, Mitteleuropa, Deutschland, Hessen, Dillkreis, Ober- Lahnkreis
R: Staende -, Soldaten -, Kriegs - Lied
M: 4/4
L: 1/16
K: D
D2D2FG | A6F2d3cB3A | A2G2G4z2
G2E2F2 | G6G2G2B2A2G2 | F8z2
D2D2FG | A6F2d3cB3A | A2G2G4z2
G2E2F2 | G6G2G2B2A2G2 | F8z2
A2B2A2 | E6D2C2E2B2AG | F4z6
A2B2A2 | E6D2C2E2B2AG | F4z6
D2D2FG | A6A2A2d2f2d2 | d4B4z2
d2c2B2 | A6A2B2A2G2A2 | F8z2

